X: 24
T:Lollipop Man - Ducklington
S:OY(AB)3A
N:Tune as played for Grand Union Morris
M:4/4
L:1/8
Q:120
K:G
"A" BA | GB D2 D2 DE | G2 G2 G3 A | BA GA BA GA | B2 E2 E2  BA |
 GB D2 D2 DE | G2 G2 G3 d | edef g2 dc | B2 A2 G3 ||
"B" A | d2 d2 gfeg | B2 d2 d3 B | AGAB cBAG | A2 E2 E2   BA |
 GB D2 D2 DE | G2 G2 G3 d | edef g2 dc | B2 A2 G3 ||
